X: 18
T: Princitore
T: for two
C: Music for Bayons
P: AAA BBB CCC
K: C major
M: 6/8
L: 1/8
P: A (3x)
c2B A2G | c2B A2G | c3 c3 | ed2 "^        (3)"c3 :: \
P: B (3x)
e3 d2e | f2g e2d |
e2e d2f | ed2 c2c | "^         (3)"c6 :: \
P: C (3x)
c2B A2G | c2B A2G | c3 c3 | \ed2 "^        (3)"c3 :| 

